X:2903
T:Jack Maguire's
O:england
R:reel
S:Session at Shoot the Crows, Sligo, 1992
H:Also played with single parts
D:Shaskeen: 25th Silver Jubilee Collection
M:C|
K:D
DF~F2 DG~G2|DF~F2 EFDC|DF~F2 ABde|fdAG FGEF|
DF~F2 DG~G2|DF~F2 EFDC|DF~F2 ABde|fdAG FDD2:|
|:fgaf g2ag|fgaf gfeg|fgaf g2ag|f2eg fdde|
fgaf g2ag|fgaf gfeg|fdAF G2ag|fdAG FDD2:|
"variations"
|:DFAF DGBG|DFAF EDCE|DFBF ABde|fdAG FGEF|
DFAF DGBG|DFAF EDCE|DFBF ABde|fdAG FDD2:|
|:f2af gaag|f2af gfeg|f2af gaag|fdAG FDD2|
fgaf g2ag|fgaf gfeg|fdAF G2ag|fdAG FDD2:|


